X: 4
T:The Back Road
R:slide
C:Tony Upton, 3/21/98
M:12/8
L:1/8
Q:3/8=150
K:D
g3 e2d d2B B3|G2A A2B GED D3|g2e e2d d2B A2G|G2A B2F DEF G3|!
gfe e3 d2B B3|G2A A2B GED D3|gfe fed dBA G3|G2A B2F DEF G3:|!
g3 e2d d2b b3|agf gfe e2d d3|g3 e2d d2b b3|gfe d2G DEF G3|!
gfe fed d2b b3|agf gfe e2d d3|gg2 e2d d2b b3|gfe d2d DEF G3|!
